assets/icon-muscle.svg

<?xml version="1.0" encoding="UTF-8"?>
<!DOCTYPE svg PUBLIC "-//W3C//DTD SVG 1.1//EN" "http://www.w3.org/Graphics/SVG/1.1/DTD/svg11.dtd">
<!-- Creator: CorelDRAW 2017 -->
<svg xmlns="http://www.w3.org/2000/svg" xml:space="preserve" width="100%" height="100%" version="1.1" style="shape-rendering:geometricPrecision; text-rendering:geometricPrecision; image-rendering:optimizeQuality; fill-rule:evenodd; clip-rule:evenodd"
viewBox="0 0 1.52917 1.61528"
 xmlns:xlink="http://www.w3.org/1999/xlink">
 <defs>
  <style type="text/css">
   <![CDATA[
    .fil0 {fill:#FE4F32}
   ]]>
  </style>
 </defs>
 <g id="Camada_x0020_1">
  <metadata id="CorelCorpID_0Corel-Layer"/>
  <path class="fil0" d="M0.90912 0.27305c-0.01314,-0.03351 0.00097,-0.09133 -0.00556,-0.13297 -0.00594,-0.03783 -0.02808,-0.05507 -0.0576,-0.07252l0.0513 -0.00596c0.01322,0.01879 0.02196,0.02536 0.02196,0.05496 0,0.04092 0.00862,0.12348 -0.0101,0.15649zm-0.10097 -0.21119c-0.0258,0.01602 -0.022,0.00392 -0.0161,0.04596l0.05341 0.02324c0.0121,0.0691 0.01552,0.18516 -0.01929,0.22679 -0.00356,-0.05148 0.00518,-0.13109 -0.00439,-0.17671 -0.02471,-0.11778 -0.18865,-0.05621 -0.08857,-0.01455 0.03377,0.01406 0.03466,0.01565 0.03596,0.05992 0.00625,0.21383 0.01917,0.1917 -0.11295,0.19502 -0.05219,0.00131 -0.0691,0.00479 -0.06234,-0.05216l0.06378 -0.01914c0.02929,0.01213 0.00114,0.03725 0.05968,0.01664 0.01296,-0.03079 0.0101,-0.09662 -0.00369,-0.1239l-0.03408 -0.00067 -0.01299 0.04426c-0.03068,0.01564 -0.1008,0.03419 -0.13039,0.02832 -0.02352,-0.05478 -0.00026,-0.11384 -0.01935,-0.16837 -0.06931,-0.00367 -0.04905,0.05615 -0.04833,0.12038 0.00085,0.0773 0.02797,0.07182 0.05928,0.11038 -0.04042,0.16516 0.08088,0.35027 -0.03062,0.56 -0.00461,0.00867 -0.01403,0.02293 -0.01601,0.03049 -0.0095,0.03621 0.02589,0.0592 0.06753,-0.00351 0.09134,-0.13754 0.2452,-0.15679 0.3735,-0.0701 0.02382,0.0161 0.03834,0.02986 0.05634,0.05386 0.00414,0.00551 0.02144,0.02824 0.02576,0.03103 0.02408,0.01555 0.02175,0.01139 0.03989,-0.00092 0.03084,-0.03007 -0.05927,-0.10674 -0.05981,-0.10712 0.12456,-0.09109 0.27667,-0.10994 0.41869,-0.02299 0.06812,0.0417 0.08788,0.09303 0.11859,0.06294 0.05701,-0.05585 -0.22177,-0.22815 -0.44551,-0.15408 -0.08695,0.02879 -0.10764,0.06201 -0.14298,0.07727 -0.1329,-0.08011 -0.21432,-0.04687 -0.34217,0.0002 0.01172,-0.0766 0.01552,-0.11317 0.0049,-0.19055 -0.00624,-0.04549 -0.0334,-0.14409 -0.01825,-0.17596 0.04927,0.02237 0.19719,0.01284 0.22778,-0.02098 0.02065,-0.02283 0.00277,-0.01278 0.0322,-0.03053 0.05363,-0.03234 0.02926,-0.01896 0.06222,-0.06442 0.01676,-0.02313 0.01822,-0.01367 0.03994,-0.031 0.04566,-0.03643 0.07396,-0.26455 -0.02164,-0.308 -0.03414,-0.01552 -0.08607,-0.00859 -0.12719,-0.00856 -0.17941,0.00017 -0.3918,-0.03988 -0.41238,0.12019 -0.02809,0.2186 -0.03075,0.18823 -0.15404,0.37393 -0.03509,0.05285 -0.06583,0.10573 -0.10354,0.15726 -0.13294,0.18166 -0.15606,0.43629 -0.07065,0.62761 0.02542,0.05692 0.08362,0.08914 0.15011,0.11148 0.03786,0.01272 0.08332,0.01327 0.11165,0.0231 0.03185,0.01106 0.18219,0.16576 0.47064,0.19263 0.16502,0.01537 0.30424,-0.00734 0.44765,-0.05869 0.01829,-0.00655 0.07792,-0.02255 0.06131,-0.05606 -0.03288,-0.06633 -0.3191,0.18936 -0.76276,-0.01118 -0.06365,-0.02877 -0.11455,-0.06079 -0.16254,-0.09846 -0.04574,-0.0359 -0.03466,-0.01991 -0.10271,-0.03206 -0.03489,-0.00623 -0.06792,-0.01924 -0.09812,-0.03554 -0.12057,-0.06506 -0.11959,-0.2851 -0.09626,-0.40787 0.01378,-0.07249 0.03509,-0.12944 0.07351,-0.18615 0.09255,-0.13661 0.26695,-0.36806 0.28523,-0.51354 0.01183,-0.09423 0.00162,-0.14921 0.10966,-0.15083 0.08524,-0.00127 0.18626,-0.00332 0.27044,0.0017zm-0.35071 0.42007c-0.03752,-0.00185 -0.04102,0.01515 -0.04276,0.0528 -0.00772,0.16677 0.02943,0.44719 -0.11874,0.49203 -0.1007,0.03048 -0.00611,0.11884 0.10423,-0.00524 0.07495,-0.08429 0.06326,-0.23715 0.06709,-0.34403 0.002,-0.05567 0.01928,-0.15802 -0.00982,-0.19556zm0.03346 0.74221c-0.02569,0.02997 0.05964,0.09056 0.08233,0.1059 0.0947,0.06402 0.20975,0.08756 0.32409,0.06248 0.04005,-0.00878 0.13127,-0.04505 0.14594,-0.06875 0.01541,-0.02489 -0.00653,-0.04809 -0.03286,-0.0408 -0.01227,0.0034 -0.04694,0.02686 -0.06758,0.03596 -0.13126,0.05786 -0.28044,0.02322 -0.38287,-0.07065 -0.01953,-0.0179 -0.04039,-0.05757 -0.06905,-0.02414z"/>
 </g>
</svg>

<svg xmlns="http://www.w3.org/2000/svg" width="100%" height="100%" fill-rule="evenodd" clip-rule="evenodd" image-rendering="optimizeQuality" shape-rendering="geometricPrecision" text-rendering="geometricPrecision" version="1.1" viewBox="0 0 1.529 1.615" xml:space="preserve">
  <path fill="#fe4f32" d="M.91.273C.895.24.91.182.903.14.898.102.875.085.846.068L.897.062C.91.08.92.087.92.117c0 .04.009.123-.01.156zM.807.062C.782.078.786.066.792.108L.845.13c.013.07.016.185-.019.227C.823.306.831.227.822.18.797.063.633.125.733.167.767.18.768.182.77.227.775.44.79.418.656.422.604.422.587.426.594.369L.658.35c.029.012 0 .037.06.017A.196.196 0 0 0 .713.243H.68L.667.286a.29.29 0 0 1-.13.028C.512.26.535.2.516.147.447.143.467.203.469.267c0 .077.027.072.059.11-.04.165.08.35-.03.56C.492.946.482.96.48.967c-.01.037.026.06.068-.003C.64.827.794.807.922.894A.21.21 0 0 1 .98.948a.289.289 0 0 0 .025.031c.024.016.022.011.04 0C1.075.948.984.87.984.87a.361.361 0 0 1 .42-.023c.067.042.087.093.118.063C1.579.855 1.3.683 1.076.757.99.786.968.819.933.834.8.754.72.787.591.834a.546.546 0 0 0 .005-.19C.59.598.562.5.578.468.627.49.775.48.805.447.826.424.808.434.838.417.89.383.867.396.9.351.917.329.918.338.94.32.985.284 1.014.056.918.013.884-.003.832.004.791.004c-.18 0-.392-.04-.412.12C.35.345.348.314.225.499.189.551.159.604.12.656a.65.65 0 0 0-.07.627c.025.057.083.09.15.112.037.013.083.013.111.023.032.011.182.166.47.193a.998.998 0 0 0 .448-.06c.019-.006.078-.022.062-.055-.033-.067-.32.19-.763-.011a.768.768 0 0 1-.163-.099c-.045-.036-.034-.02-.102-.032a.33.33 0 0 1-.098-.035C.045 1.253.046 1.033.069.91A.47.47 0 0 1 .143.725C.235.588.41.356.428.21.44.117.43.061.538.061c.085-.002.186-.004.27 0zm-.35.42C.42.48.415.497.414.535c-.008.167.03.447-.12.492-.1.03-.005.119.105-.005C.475.937.463.784.467.677.47.622.487.52.457.482zm.033.742c-.026.03.06.09.082.106.095.064.21.088.324.063.04-.01.132-.046.146-.07.016-.024-.006-.047-.033-.04-.012.003-.047.027-.067.036a.356.356 0 0 1-.383-.07C.54 1.23.52 1.19.49 1.223z"/>
</svg>
